assets/1. 1-F/Bus stop/Color/Bus.Stop-color.svg

<svg width="100%" height="100%" viewBox="0 0 32 32" fill="none" xmlns="http://www.w3.org/2000/svg">
<path d="M7 2H3V30H7V2Z" fill="url(#paint0_linear_18_11612)"/>
<path d="M7 2H3V30H7V2Z" fill="url(#paint1_radial_18_11612)"/>
<path d="M7 2H3V30H7V2Z" fill="url(#paint2_radial_18_11612)"/>
<g filter="url(#filter0_f_18_11612)">
<rect x="5" y="3.15173" width="1.08669" height="26.0114" fill="url(#paint3_linear_18_11612)"/>
</g>
<path d="M7 2H3V30H7V2Z" fill="url(#paint4_radial_18_11612)"/>
<path d="M7 2H3V30H7V2Z" fill="url(#paint5_radial_18_11612)"/>
<path d="M8.09353 10H2.90647C2.40288 10 2 9.59494 2 9.08861V6.91139C2 6.40506 2.40288 6 2.90647 6H8.09353C8.59712 6 9 6.40506 9 6.91139V9.07848C9 9.58481 8.59712 10 8.09353 10Z" fill="url(#paint6_linear_18_11612)"/>
<path d="M8.09353 10H2.90647C2.40288 10 2 9.59494 2 9.08861V6.91139C2 6.40506 2.40288 6 2.90647 6H8.09353C8.59712 6 9 6.40506 9 6.91139V9.07848C9 9.58481 8.59712 10 8.09353 10Z" fill="url(#paint7_linear_18_11612)"/>
<path d="M8.09353 10H2.90647C2.40288 10 2 9.59494 2 9.08861V6.91139C2 6.40506 2.40288 6 2.90647 6H8.09353C8.59712 6 9 6.40506 9 6.91139V9.07848C9 9.58481 8.59712 10 8.09353 10Z" fill="url(#paint8_linear_18_11612)"/>
<path d="M8.09353 23H2.90647C2.40288 23 2 22.5939 2 22.0863V19.9137C2 19.4061 2.40288 19 2.90647 19H8.09353C8.59712 19 9 19.4061 9 19.9137V22.0863C9 22.5838 8.59712 23 8.09353 23Z" fill="url(#paint9_linear_18_11612)"/>
<path d="M8.09353 23H2.90647C2.40288 23 2 22.5939 2 22.0863V19.9137C2 19.4061 2.40288 19 2.90647 19H8.09353C8.59712 19 9 19.4061 9 19.9137V22.0863C9 22.5838 8.59712 23 8.09353 23Z" fill="url(#paint10_linear_18_11612)"/>
<path d="M8.09353 23H2.90647C2.40288 23 2 22.5939 2 22.0863V19.9137C2 19.4061 2.40288 19 2.90647 19H8.09353C8.59712 19 9 19.4061 9 19.9137V22.0863C9 22.5838 8.59712 23 8.09353 23Z" fill="url(#paint11_linear_18_11612)"/>
<g filter="url(#filter1_ii_18_11612)">
<path d="M10.2547 25H26.7453C27.9889 25 29 23.9889 29 22.7453V6.25469C29 5.01107 27.9889 4 26.7453 4H10.2547C9.01107 4 8 5.01107 8 6.25469V22.7453C8 23.9889 9.01107 25 10.2547 25Z" fill="url(#paint12_linear_18_11612)"/>
</g>
<path d="M10.2547 25H26.7453C27.9889 25 29 23.9889 29 22.7453V6.25469C29 5.01107 27.9889 4 26.7453 4H10.2547C9.01107 4 8 5.01107 8 6.25469V22.7453C8 23.9889 9.01107 25 10.2547 25Z" fill="url(#paint13_linear_18_11612)"/>
<path d="M10.2547 25H26.7453C27.9889 25 29 23.9889 29 22.7453V6.25469C29 5.01107 27.9889 4 26.7453 4H10.2547C9.01107 4 8 5.01107 8 6.25469V22.7453C8 23.9889 9.01107 25 10.2547 25Z" fill="url(#paint14_radial_18_11612)"/>
<rect x="21.9343" y="16.995" width="2.03821" height="4.00503" rx="0.5" fill="url(#paint15_linear_18_11612)"/>
<rect x="13.0275" y="16.995" width="2.03821" height="4.00503" rx="0.5" fill="url(#paint16_linear_18_11612)"/>
<rect x="23.6974" y="13.0969" width="1.15156" height="0.968137" fill="url(#paint17_linear_18_11612)"/>
<rect x="12.4517" y="13.0969" width="1.15156" height="0.968137" fill="url(#paint18_linear_18_11612)"/>
<path d="M13.0275 9.74929C13.0275 8.86564 13.7439 8.14929 14.6275 8.14929H22.3725C23.2562 8.14929 23.9725 8.86564 23.9725 9.74929V18.7427C23.9725 19.1846 23.6144 19.5427 23.1725 19.5427H13.8275C13.3857 19.5427 13.0275 19.1846 13.0275 18.7427V9.74929Z" fill="url(#paint19_linear_18_11612)"/>
<rect x="24.4464" y="12.1033" width="0.983422" height="2.4662" rx="0.3" fill="url(#paint20_linear_18_11612)"/>
<rect opacity="0.55" x="11.5701" y="12.1033" width="0.983422" height="2.4662" rx="0.3" fill="#C86464" fill-opacity="0.5"/>
<rect x="11.5701" y="12.1033" width="0.983422" height="2.4662" rx="0.3" fill="url(#paint21_linear_18_11612)"/>
<path d="M23.9725 15.9688V18.7427C23.9725 19.1845 23.6144 19.5427 23.1725 19.5427H13.8275C13.3857 19.5427 13.0275 19.1845 13.0275 18.7427V15.9688H23.9725Z" fill="url(#paint22_linear_18_11612)"/>
<rect x="14.0466" y="9.6167" width="8.90687" height="5.9515" rx="0.5" fill="url(#paint23_linear_18_11612)"/>
<path d="M22.9534 11.1046H14.0466V10.1167C14.0466 9.84056 14.2704 9.6167 14.5466 9.6167H22.4534C22.7296 9.6167 22.9534 9.84056 22.9534 10.1167V11.1046Z" fill="url(#paint24_linear_18_11612)"/>
<rect x="15.5446" y="16.5465" width="5.94133" height="0.509546" rx="0.254773" fill="url(#paint25_linear_18_11612)"/>
<rect x="16.5229" y="17.5453" width="3.95409" height="0.509546" rx="0.254773" fill="url(#paint26_linear_18_11612)"/>
<path d="M13.0275 18.5337V16.5465H14.0358C14.3119 16.5465 14.5358 16.7704 14.5358 17.0465V18.0337C14.5358 18.3099 14.3119 18.5337 14.0358 18.5337H13.0275Z" fill="url(#paint27_linear_18_11612)"/>
<path d="M23.9725 18.5337V16.5465H22.9643C22.6882 16.5465 22.4643 16.7704 22.4643 17.0465V18.0337C22.4643 18.3099 22.6882 18.5337 22.9643 18.5337H23.9725Z" fill="url(#paint28_linear_18_11612)"/>
<defs>
<filter id="filter0_f_18_11612" x="3.5" y="1.65173" width="4.08667" height="29.0114" filterUnits="userSpaceOnUse" color-interpolation-filters="sRGB">
<feFlood flood-opacity="0" result="BackgroundImageFix"/>
<feBlend mode="normal" in="SourceGraphic" in2="BackgroundImageFix" result="shape"/>
<feGaussianBlur stdDeviation="0.75" result="effect1_foregroundBlur_18_11612"/>
</filter>
<filter id="filter1_ii_18_11612" x="6.75" y="2.75" width="23.5" height="23.5" filterUnits="userSpaceOnUse" color-interpolation-filters="sRGB">
<feFlood flood-opacity="0" result="BackgroundImageFix"/>
<feBlend mode="normal" in="SourceGraphic" in2="BackgroundImageFix" result="shape"/>
<feColorMatrix in="SourceAlpha" type="matrix" values="0 0 0 0 0 0 0 0 0 0 0 0 0 0 0 0 0 0 127 0" result="hardAlpha"/>
<feOffset dx="-1.25" dy="1.25"/>
<feGaussianBlur stdDeviation="0.625"/>
<feComposite in2="hardAlpha" operator="arithmetic" k2="-1" k3="1"/>
<feColorMatrix type="matrix" values="0 0 0 0 0.262745 0 0 0 0 0.65098 0 0 0 0 0.952941 0 0 0 1 0"/>
<feBlend mode="normal" in2="shape" result="effect1_innerShadow_18_11612"/>
<feColorMatrix in="SourceAlpha" type="matrix" values="0 0 0 0 0 0 0 0 0 0 0 0 0 0 0 0 0 0 127 0" result="hardAlpha"/>
<feOffset dx="1.25" dy="-1.25"/>
<feGaussianBlur stdDeviation="0.625"/>
<feComposite in2="hardAlpha" operator="arithmetic" k2="-1" k3="1"/>
<feColorMatrix type="matrix" values="0 0 0 0 0.160784 0 0 0 0 0.32549 0 0 0 0 0.572549 0 0 0 1 0"/>
<feBlend mode="normal" in2="effect1_innerShadow_18_11612" result="effect2_innerShadow_18_11612"/>
</filter>
<linearGradient id="paint0_linear_18_11612" x1="3.00333" y1="16.0038" x2="6.08669" y2="16.0038" gradientUnits="userSpaceOnUse">
<stop stop-color="#625F69"/>
<stop offset="1" stop-color="#8D8BA1"/>
</linearGradient>
<radialGradient id="paint1_radial_18_11612" cx="0" cy="0" r="1" gradientUnits="userSpaceOnUse" gradientTransform="translate(7.77193 2) rotate(104.295) scale(5.04473 3.56373)">
<stop stop-color="#CBC9D2"/>
<stop offset="1" stop-color="#CBC9D2" stop-opacity="0"/>
</radialGradient>
<radialGradient id="paint2_radial_18_11612" cx="0" cy="0" r="1" gradientUnits="userSpaceOnUse" gradientTransform="translate(10.1166 32.6068) rotate(-116.565) scale(10.3219 6.20815)">
<stop stop-color="#AEA1BE"/>
<stop offset="1" stop-color="#AEA1BE" stop-opacity="0"/>
</radialGradient>
<linearGradient id="paint3_linear_18_11612" x1="5.54335" y1="3.15173" x2="5.54335" y2="29.1631" gradientUnits="userSpaceOnUse">
<stop stop-color="#C1BEC8"/>
<stop offset="1" stop-color="#C1BEC8" stop-opacity="0"/>
</linearGradient>
<radialGradient id="paint4_radial_18_11612" cx="0" cy="0" r="1" gradientUnits="userSpaceOnUse" gradientTransform="translate(5 9.06217) rotate(90) scale(1.93545 3.83941)">
<stop offset="0.329268" stop-color="#645775"/>
<stop offset="1" stop-color="#645775" stop-opacity="0"/>
</radialGradient>
<radialGradient id="paint5_radial_18_11612" cx="0" cy="0" r="1" gradientUnits="userSpaceOnUse" gradientTransform="translate(5 21.7529) rotate(90) scale(2.69494 5.34602)">
<stop offset="0.329268" stop-color="#645775"/>
<stop offset="1" stop-color="#645775" stop-opacity="0"/>
</radialGradient>
<linearGradient id="paint6_linear_18_11612" x1="1.99396" y1="7.99929" x2="6.97482" y2="7.99929" gradientUnits="userSpaceOnUse">
<stop stop-color="#5B5763"/>
<stop offset="1" stop-color="#B0A8BB"/>
</linearGradient>
<linearGradient id="paint7_linear_18_11612" x1="5.5" y1="6" x2="5.5" y2="6.68032" gradientUnits="userSpaceOnUse">
<stop stop-color="#8A8C96"/>
<stop offset="1" stop-color="#8A8C96" stop-opacity="0"/>
</linearGradient>
<linearGradient id="paint8_linear_18_11612" x1="6.25286" y1="10.5168" x2="6.25286" y2="9.03957" gradientUnits="userSpaceOnUse">
<stop stop-color="#625275"/>
<stop offset="1" stop-color="#625275" stop-opacity="0"/>
</linearGradient>
<linearGradient id="paint9_linear_18_11612" x1="1.99396" y1="20.9993" x2="6.97482" y2="20.9993" gradientUnits="userSpaceOnUse">
<stop stop-color="#5B5763"/>
<stop offset="1" stop-color="#B0A8BB"/>
</linearGradient>
<linearGradient id="paint10_linear_18_11612" x1="5.5" y1="19" x2="5.5" y2="19.6803" gradientUnits="userSpaceOnUse">
<stop stop-color="#8A8C96"/>
<stop offset="1" stop-color="#8A8C96" stop-opacity="0"/>
</linearGradient>
<linearGradient id="paint11_linear_18_11612" x1="6.25286" y1="23.5168" x2="6.25286" y2="22.0396" gradientUnits="userSpaceOnUse">
<stop stop-color="#625275"/>
<stop offset="1" stop-color="#625275" stop-opacity="0"/>
</linearGradient>
<linearGradient id="paint12_linear_18_11612" x1="11.3125" y1="23.4375" x2="27.5625" y2="5.74998" gradientUnits="userSpaceOnUse">
<stop stop-color="#3C7BD2"/>
<stop offset="1" stop-color="#3893E1"/>
</linearGradient>
<linearGradient id="paint13_linear_18_11612" x1="18.5" y1="25.6875" x2="18.5" y2="23.125" gradientUnits="userSpaceOnUse">
<stop stop-color="#3054C2"/>
<stop offset="1" stop-color="#3054C2" stop-opacity="0"/>
</linearGradient>
<radialGradient id="paint14_radial_18_11612" cx="0" cy="0" r="1" gradientUnits="userSpaceOnUse" gradientTransform="translate(28.7812 4.43748) rotate(130.192) scale(2.37274 1.97845)">
<stop offset="0.141343" stop-color="#52BBFF"/>
<stop offset="1" stop-color="#52BBFF" stop-opacity="0"/>
</radialGradient>
<linearGradient id="paint15_linear_18_11612" x1="21.9343" y1="20.1346" x2="23.9725" y2="20.1346" gradientUnits="userSpaceOnUse">
<stop stop-color="#5C4373"/>
<stop offset="1" stop-color="#3F3944"/>
</linearGradient>
<linearGradient id="paint16_linear_18_11612" x1="13.0275" y1="20.1346" x2="15.0657" y2="20.1346" gradientUnits="userSpaceOnUse">
<stop stop-color="#5C4373"/>
<stop offset="1" stop-color="#3F3944"/>
</linearGradient>
<linearGradient id="paint17_linear_18_11612" x1="23.9657" y1="13.4764" x2="24.4394" y2="13.4764" gradientUnits="userSpaceOnUse">
<stop stop-color="#3D3740"/>
<stop offset="1" stop-color="#453A4E"/>
</linearGradient>
<linearGradient id="paint18_linear_18_11612" x1="12.5385" y1="13.4764" x2="12.9453" y2="13.4764" gradientUnits="userSpaceOnUse">
<stop stop-color="#3D3740"/>
<stop offset="1" stop-color="#453A4E"/>
</linearGradient>
<linearGradient id="paint19_linear_18_11612" x1="13.7854" y1="8.14929" x2="24.8778" y2="17.9013" gradientUnits="userSpaceOnUse">
<stop stop-color="#D1C4D9"/>
<stop offset="1" stop-color="#DDCDE7"/>
</linearGradient>
<linearGradient id="paint20_linear_18_11612" x1="24.5154" y1="13.07" x2="25.4298" y2="13.07" gradientUnits="userSpaceOnUse">
<stop stop-color="#3F3742"/>
<stop offset="1" stop-color="#543F68"/>
</linearGradient>
<linearGradient id="paint21_linear_18_11612" x1="11.6392" y1="13.07" x2="12.5536" y2="13.07" gradientUnits="userSpaceOnUse">
<stop stop-color="#3F3742"/>
<stop offset="1" stop-color="#543F68"/>
</linearGradient>
<linearGradient id="paint22_linear_18_11612" x1="14.2014" y1="15.9687" x2="21.3421" y2="19.8078" gradientUnits="userSpaceOnUse">
<stop stop-color="#EEB742"/>
<stop offset="1" stop-color="#E2A53E"/>
</linearGradient>
<linearGradient id="paint23_linear_18_11612" x1="14.0466" y1="12.2306" x2="22.9534" y2="12.2306" gradientUnits="userSpaceOnUse">
<stop stop-color="#389BEC"/>
<stop offset="1" stop-color="#57D4F4"/>
</linearGradient>
<linearGradient id="paint24_linear_18_11612" x1="14.0466" y1="10.3606" x2="22.9534" y2="10.3606" gradientUnits="userSpaceOnUse">
<stop stop-color="#403B44"/>
<stop offset="1" stop-color="#5A436E"/>
</linearGradient>
<linearGradient id="paint25_linear_18_11612" x1="15.5446" y1="16.8013" x2="21.4859" y2="16.8013" gradientUnits="userSpaceOnUse">
<stop stop-color="#5B5360"/>
<stop offset="1" stop-color="#68606D"/>
</linearGradient>
<linearGradient id="paint26_linear_18_11612" x1="16.5229" y1="17.8001" x2="20.477" y2="17.8001" gradientUnits="userSpaceOnUse">
<stop stop-color="#5B5360"/>
<stop offset="1" stop-color="#68606D"/>
</linearGradient>
<linearGradient id="paint27_linear_18_11612" x1="13.0275" y1="17.8654" x2="14.3631" y2="17.8654" gradientUnits="userSpaceOnUse">
<stop stop-color="#C7B8D1"/>
<stop offset="1" stop-color="#DECEE6"/>
</linearGradient>
<linearGradient id="paint28_linear_18_11612" x1="22.4643" y1="17.5401" x2="24.2932" y2="17.5401" gradientUnits="userSpaceOnUse">
<stop stop-color="#C7B8D1"/>
<stop offset="1" stop-color="#DECEE6"/>
</linearGradient>
</defs>
</svg>

<svg width="100%" height="100%" viewBox="0 0 32 32" xmlns="http://www.w3.org/2000/svg"><path fill="url(#a)" d="M7 2H3v28h4z"/><path fill="url(#b)" d="M7 2H3v28h4z"/><path fill="url(#c)" d="M7 2H3v28h4z"/><g filter="url(#d)"><path fill="url(#e)" d="M5 3.152h1.087v26.011H5z"/></g><path fill="url(#f)" d="M7 2H3v28h4z"/><path fill="url(#g)" d="M7 2H3v28h4z"/><path fill="url(#h)" d="M8.094 10H2.906A.905.905 0 0 1 2 9.089V6.91C2 6.405 2.403 6 2.906 6h5.188c.503 0 .906.405.906.911v2.167a.914.914 0 0 1-.906.922"/><path fill="url(#i)" d="M8.094 10H2.906A.905.905 0 0 1 2 9.089V6.91C2 6.405 2.403 6 2.906 6h5.188c.503 0 .906.405.906.911v2.167a.914.914 0 0 1-.906.922"/><path fill="url(#j)" d="M8.094 10H2.906A.905.905 0 0 1 2 9.089V6.91C2 6.405 2.403 6 2.906 6h5.188c.503 0 .906.405.906.911v2.167a.914.914 0 0 1-.906.922"/><path fill="url(#k)" d="M8.094 23H2.906A.906.906 0 0 1 2 22.086v-2.172c0-.508.403-.914.906-.914h5.188c.503 0 .906.406.906.914v2.172a.913.913 0 0 1-.906.914"/><path fill="url(#l)" d="M8.094 23H2.906A.906.906 0 0 1 2 22.086v-2.172c0-.508.403-.914.906-.914h5.188c.503 0 .906.406.906.914v2.172a.913.913 0 0 1-.906.914"/><path fill="url(#m)" d="M8.094 23H2.906A.906.906 0 0 1 2 22.086v-2.172c0-.508.403-.914.906-.914h5.188c.503 0 .906.406.906.914v2.172a.913.913 0 0 1-.906.914"/><g filter="url(#n)"><path fill="url(#o)" d="M10.255 25h16.49A2.257 2.257 0 0 0 29 22.745V6.255A2.257 2.257 0 0 0 26.745 4h-16.49A2.257 2.257 0 0 0 8 6.255v16.49A2.257 2.257 0 0 0 10.255 25"/></g><path fill="url(#p)" d="M10.255 25h16.49A2.257 2.257 0 0 0 29 22.745V6.255A2.257 2.257 0 0 0 26.745 4h-16.49A2.257 2.257 0 0 0 8 6.255v16.49A2.257 2.257 0 0 0 10.255 25"/><path fill="url(#q)" d="M10.255 25h16.49A2.257 2.257 0 0 0 29 22.745V6.255A2.257 2.257 0 0 0 26.745 4h-16.49A2.257 2.257 0 0 0 8 6.255v16.49A2.257 2.257 0 0 0 10.255 25"/><rect width="2.038" height="4.005" x="21.934" y="16.995" fill="url(#r)" rx=".5"/><rect width="2.038" height="4.005" x="13.027" y="16.995" fill="url(#s)" rx=".5"/><path fill="url(#t)" d="M23.697 13.097h1.152v.968h-1.152z"/><path fill="url(#u)" d="M12.452 13.097h1.152v.968h-1.152z"/><path fill="url(#v)" d="M13.028 9.75a1.6 1.6 0 0 1 1.6-1.6h7.744a1.6 1.6 0 0 1 1.6 1.6v8.993a.8.8 0 0 1-.8.8h-9.344a.8.8 0 0 1-.8-.8z"/><rect width=".983" height="2.466" x="24.446" y="12.103" fill="url(#w)" rx=".3"/><rect width=".983" height="2.466" x="11.57" y="12.103" fill="#C86464" fill-opacity=".5" opacity=".55" rx=".3"/><rect width=".983" height="2.466" x="11.57" y="12.103" fill="url(#x)" rx=".3"/><path fill="url(#y)" d="M23.973 15.969v2.774a.8.8 0 0 1-.8.8h-9.345a.8.8 0 0 1-.8-.8v-2.774z"/><rect width="8.907" height="5.952" x="14.047" y="9.617" fill="url(#z)" rx=".5"/><path fill="url(#A)" d="M22.953 11.105h-8.906v-.988a.5.5 0 0 1 .5-.5h7.906a.5.5 0 0 1 .5.5z"/><rect width="5.941" height=".51" x="15.545" y="16.547" fill="url(#B)" rx=".255"/><rect width="3.954" height=".51" x="16.523" y="17.545" fill="url(#C)" rx=".255"/><path fill="url(#D)" d="M13.028 18.534v-1.987h1.008a.5.5 0 0 1 .5.5v.987a.5.5 0 0 1-.5.5z"/><path fill="url(#E)" d="M23.973 18.534v-1.987h-1.009a.5.5 0 0 0-.5.5v.987a.5.5 0 0 0 .5.5z"/><defs><linearGradient id="a" x1="3.003" x2="6.087" y1="16.004" y2="16.004" gradientUnits="userSpaceOnUse"><stop stop-color="#625F69"/><stop offset="1" stop-color="#8D8BA1"/></linearGradient><linearGradient id="e" x1="5.543" x2="5.543" y1="3.152" y2="29.163" gradientUnits="userSpaceOnUse"><stop stop-color="#C1BEC8"/><stop offset="1" stop-color="#C1BEC8" stop-opacity="0"/></linearGradient><linearGradient id="h" x1="1.994" x2="6.975" y1="7.999" y2="7.999" gradientUnits="userSpaceOnUse"><stop stop-color="#5B5763"/><stop offset="1" stop-color="#B0A8BB"/></linearGradient><linearGradient id="i" x1="5.5" x2="5.5" y1="6" y2="6.68" gradientUnits="userSpaceOnUse"><stop stop-color="#8A8C96"/><stop offset="1" stop-color="#8A8C96" stop-opacity="0"/></linearGradient><linearGradient id="j" x1="6.253" x2="6.253" y1="10.517" y2="9.04" gradientUnits="userSpaceOnUse"><stop stop-color="#625275"/><stop offset="1" stop-color="#625275" stop-opacity="0"/></linearGradient><linearGradient id="k" x1="1.994" x2="6.975" y1="20.999" y2="20.999" gradientUnits="userSpaceOnUse"><stop stop-color="#5B5763"/><stop offset="1" stop-color="#B0A8BB"/></linearGradient><linearGradient id="l" x1="5.5" x2="5.5" y1="19" y2="19.68" gradientUnits="userSpaceOnUse"><stop stop-color="#8A8C96"/><stop offset="1" stop-color="#8A8C96" stop-opacity="0"/></linearGradient><linearGradient id="m" x1="6.253" x2="6.253" y1="23.517" y2="22.04" gradientUnits="userSpaceOnUse"><stop stop-color="#625275"/><stop offset="1" stop-color="#625275" stop-opacity="0"/></linearGradient><linearGradient id="o" x1="11.313" x2="27.563" y1="23.438" y2="5.75" gradientUnits="userSpaceOnUse"><stop stop-color="#3C7BD2"/><stop offset="1" stop-color="#3893E1"/></linearGradient><linearGradient id="p" x1="18.5" x2="18.5" y1="25.688" y2="23.125" gradientUnits="userSpaceOnUse"><stop stop-color="#3054C2"/><stop offset="1" stop-color="#3054C2" stop-opacity="0"/></linearGradient><linearGradient id="r" x1="21.934" x2="23.973" y1="20.135" y2="20.135" gradientUnits="userSpaceOnUse"><stop stop-color="#5C4373"/><stop offset="1" stop-color="#3F3944"/></linearGradient><linearGradient id="s" x1="13.027" x2="15.066" y1="20.135" y2="20.135" gradientUnits="userSpaceOnUse"><stop stop-color="#5C4373"/><stop offset="1" stop-color="#3F3944"/></linearGradient><linearGradient id="t" x1="23.966" x2="24.439" y1="13.476" y2="13.476" gradientUnits="userSpaceOnUse"><stop stop-color="#3D3740"/><stop offset="1" stop-color="#453A4E"/></linearGradient><linearGradient id="u" x1="12.539" x2="12.945" y1="13.476" y2="13.476" gradientUnits="userSpaceOnUse"><stop stop-color="#3D3740"/><stop offset="1" stop-color="#453A4E"/></linearGradient><linearGradient id="v" x1="13.785" x2="24.878" y1="8.149" y2="17.901" gradientUnits="userSpaceOnUse"><stop stop-color="#D1C4D9"/><stop offset="1" stop-color="#DDCDE7"/></linearGradient><linearGradient id="w" x1="24.515" x2="25.43" y1="13.07" y2="13.07" gradientUnits="userSpaceOnUse"><stop stop-color="#3F3742"/><stop offset="1" stop-color="#543F68"/></linearGradient><linearGradient id="x" x1="11.639" x2="12.554" y1="13.07" y2="13.07" gradientUnits="userSpaceOnUse"><stop stop-color="#3F3742"/><stop offset="1" stop-color="#543F68"/></linearGradient><linearGradient id="y" x1="14.201" x2="21.342" y1="15.969" y2="19.808" gradientUnits="userSpaceOnUse"><stop stop-color="#EEB742"/><stop offset="1" stop-color="#E2A53E"/></linearGradient><linearGradient id="z" x1="14.047" x2="22.953" y1="12.231" y2="12.231" gradientUnits="userSpaceOnUse"><stop stop-color="#389BEC"/><stop offset="1" stop-color="#57D4F4"/></linearGradient><linearGradient id="A" x1="14.047" x2="22.953" y1="10.361" y2="10.361" gradientUnits="userSpaceOnUse"><stop stop-color="#403B44"/><stop offset="1" stop-color="#5A436E"/></linearGradient><linearGradient id="B" x1="15.545" x2="21.486" y1="16.801" y2="16.801" gradientUnits="userSpaceOnUse"><stop stop-color="#5B5360"/><stop offset="1" stop-color="#68606D"/></linearGradient><linearGradient id="C" x1="16.523" x2="20.477" y1="17.8" y2="17.8" gradientUnits="userSpaceOnUse"><stop stop-color="#5B5360"/><stop offset="1" stop-color="#68606D"/></linearGradient><linearGradient id="D" x1="13.027" x2="14.363" y1="17.865" y2="17.865" gradientUnits="userSpaceOnUse"><stop stop-color="#C7B8D1"/><stop offset="1" stop-color="#DECEE6"/></linearGradient><linearGradient id="E" x1="22.464" x2="24.293" y1="17.54" y2="17.54" gradientUnits="userSpaceOnUse"><stop stop-color="#C7B8D1"/><stop offset="1" stop-color="#DECEE6"/></linearGradient><radialGradient id="b" cx="0" cy="0" r="1" gradientTransform="matrix(-1.24562 4.88853 -3.45339 -.87994 7.772 2)" gradientUnits="userSpaceOnUse"><stop stop-color="#CBC9D2"/><stop offset="1" stop-color="#CBC9D2" stop-opacity="0"/></radialGradient><radialGradient id="c" cx="0" cy="0" r="1" gradientTransform="matrix(-4.61609 -9.2322 5.55274 -2.77636 10.117 32.607)" gradientUnits="userSpaceOnUse"><stop stop-color="#AEA1BE"/><stop offset="1" stop-color="#AEA1BE" stop-opacity="0"/></radialGradient><radialGradient id="f" cx="0" cy="0" r="1" gradientTransform="matrix(0 1.93545 -3.83941 0 5 9.062)" gradientUnits="userSpaceOnUse"><stop offset=".329" stop-color="#645775"/><stop offset="1" stop-color="#645775" stop-opacity="0"/></radialGradient><radialGradient id="g" cx="0" cy="0" r="1" gradientTransform="matrix(0 2.69494 -5.34602 0 5 21.753)" gradientUnits="userSpaceOnUse"><stop offset=".329" stop-color="#645775"/><stop offset="1" stop-color="#645775" stop-opacity="0"/></radialGradient><radialGradient id="q" cx="0" cy="0" r="1" gradientTransform="rotate(130.192 13.36 8.9)scale(2.37274 1.97845)" gradientUnits="userSpaceOnUse"><stop offset=".141" stop-color="#52BBFF"/><stop offset="1" stop-color="#52BBFF" stop-opacity="0"/></radialGradient><filter id="d" width="4.087" height="29.011" x="3.5" y="1.652" color-interpolation-filters="sRGB" filterUnits="userSpaceOnUse"><feFlood flood-opacity="0" result="BackgroundImageFix"/><feBlend in="SourceGraphic" in2="BackgroundImageFix" result="shape"/><feGaussianBlur result="effect1_foregroundBlur_18_11612" stdDeviation=".75"/></filter><filter id="n" width="23.5" height="23.5" x="6.75" y="2.75" color-interpolation-filters="sRGB" filterUnits="userSpaceOnUse"><feFlood flood-opacity="0" result="BackgroundImageFix"/><feBlend in="SourceGraphic" in2="BackgroundImageFix" result="shape"/><feColorMatrix in="SourceAlpha" result="hardAlpha" values="0 0 0 0 0 0 0 0 0 0 0 0 0 0 0 0 0 0 127 0"/><feOffset dx="-1.25" dy="1.25"/><feGaussianBlur stdDeviation=".625"/><feComposite in2="hardAlpha" k2="-1" k3="1" operator="arithmetic"/><feColorMatrix values="0 0 0 0 0.262745 0 0 0 0 0.65098 0 0 0 0 0.952941 0 0 0 1 0"/><feBlend in2="shape" result="effect1_innerShadow_18_11612"/><feColorMatrix in="SourceAlpha" result="hardAlpha" values="0 0 0 0 0 0 0 0 0 0 0 0 0 0 0 0 0 0 127 0"/><feOffset dx="1.25" dy="-1.25"/><feGaussianBlur stdDeviation=".625"/><feComposite in2="hardAlpha" k2="-1" k3="1" operator="arithmetic"/><feColorMatrix values="0 0 0 0 0.160784 0 0 0 0 0.32549 0 0 0 0 0.572549 0 0 0 1 0"/><feBlend in2="effect1_innerShadow_18_11612" result="effect2_innerShadow_18_11612"/></filter></defs></svg>
